X:1
T:Title
%%score { 1 | ( 2 3 ) }
L:1/8
M:4/4
K:Ab
V:1 treble nm="Grand Piano"
V:2 treble 
V:3 treble 
V:1
 z4 z2[Q:1/4=106] A2 | c3 c [Gc]2 [GB]2 | [GB]2 [FA]4 [EG]2 | [EG]3 F A2 F2 |[M:3/4] E6 | %5
[M:1/4] E2 |[M:4/4] A3 A [FB]2 [Fc]2 | [Fd]3 [Fd] [=Ec]2 [FA]2 | [=DF]3 [EG] [FA]2 [DB]2 | %9
[M:3/4] [EB]6 |[M:1/4] [GB]2 |[M:4/4] [GB]3 [F_c] [=E=c]2 [EG]2 | B3 A A2 [FA]2 | %13
 [FA]3 [E=A] [=DB]2 [B,F]2 |[M:3/4] [B,EG]6 |[M:1/4] [B,EG]2 |[M:4/4] [EA]3 [DEB] [CAc]2 [_Ge]2 | %17
 [Fe]3 [G=d] .[F_d]2 [EAc]2 | [EAc]3 [CEA] [DF]2 .[CDG]2 |[M:3/4] [A,CA]6 |] %20
V:2
 z4 z2 [A,CE]2 | [A,CE]3 [A,DF][K:bass] [E,E]2 [E,D]2 | [F,D]2 [F,C]4 [C,C]2 | %3
 [D,A,]3 [D,A,D] [F,A,D]2 [D,A,D]2 |[M:3/4] [A,C]6 |[M:1/4] [G,B,]2 | %6
[M:4/4] [F,CF]3 [F,CF] [D,B,]2 [C,=A,]2 | [B,,B,]3 [B,,A,] [C,G,]2 [F,A,]2 | %8
 [B,,B,]3 [B,,B,] [B,,B,]2 [B,,A,]2 |[M:3/4] A,4 z2 |[M:1/4] E,2 | %11
[M:4/4] [E,G,]3 [D,G,] [C,G,]2 [C,C]2 | [F,DF]3 [F,CF] [F,CF]2 [E,C]2 | %13
 [=D,B,]3 [C,F,] [B,,F,]2 D,2 |[M:3/4] E,6 |[M:1/4] D,2 |[M:4/4] C,3 B,, A,,2 [C,A,]2 | %17
 [D,A,]3 [D,A,] z GC,D, | E,3 E, E,2 z B, |[M:3/4] A,,6 |] %20
V:3
 x8 | x4[K:bass] x4 | x8 | x8 |[M:3/4] x6 |[M:1/4] x2 |[M:4/4] x8 | x8 | x8 |[M:3/4] E,4- [E,G,]2 | %10
[M:1/4] x2 |[M:4/4] x8 | x8 | x8 |[M:3/4] x6 |[M:1/4] x2 |[M:4/4] x8 | z4 [B,,B,]2 z2 | z4 z2 E,2 | %19
[M:3/4] x6 |] %20

